X:912804
T:Hallelujah 3VP1
% %score {M P9} P3
% %score 1 { ( 2 3 ) | ( 4 5 ) } ( 6 7 ) ( 8 9 ) 10 ( 11 12 )
B:
H:
C:
O:Transcribed by Kevin Fraser
Z:Kevin Fraser
K:A
% K:Amix
% K:AMix sound=A_b
% K:{g}B{d}BMix score=_{g}B{e}A %concert Pitch
L:1/8
Q:3/8=90
M:12/8
%%MIDI drummap ^a 49
%%MIDI drummap ^g 42
%%MIDI drummap _g 46
%%MIDI drummap c 38
%%MIDI drummap F 35
%%MIDI gracedivider 100
%%MIDI gchord
%%MIDI beatstring
% %MIDI program 109 #bagpipes
%%MIDI vol 100
% %MIDI droneon
%I:MIDI=program 110
I:linebreak $
%V:M clef=treble transpose=-2 nm="Piper Melody" snm="P1 Melody" 
%%align 80
V:M clef=treble nm="Melody" snm="Melody" 
V:4 clef=treble-8 nm="Acoustic Guitar" snm="Guit9" 
V:P3 clef=treble nm="Chords" snm="Chords" 
V:P5 clef=treble nm="Bass" snm="Bass" 
V:P7 clef=treble nm="DNU" snm="DNU"
V:P9 clef=treble nm="DNU" snm="DNU"
V:BT clef=perc nm="Bass Tenor" snm="B&T"
V:S clef=perc nm="Snare" snm="Snare"
V:BB gstem=up stem=down name="Brass Bass" sname="ABCD-C" transpose=-1  octave=-1 clef=bass
V:BC gstem=up stem=down name="Brass Chord" sname="ABCD-D" transpose=-1
V:BD gstem=up stem=down name="Brass Chord 2" sname="ABCD-B" transpose=-1
V:P gstem=up stem=down name="Piano" octave=-1
% %score { M P3 P5 }
[V:M]c     |: {g}e2{A}e {g}e2{A}e {g}f{g}f{g}f- {g}f2c            |  {g}e2{A}e    {g}e2{A}e {g}f{g}f{g}f {g}f2e | {g}f2{g}f    {g}f2{g}f {g}f2e {g}e2d     | {g}                 e3 {A} e6- e{g}cd  | $
w: I've | heard there was a se-cret chord - that| Da-vid played and it pleased the lord but| you don't real-ly care  for mu-sic | do ya Well it |
[V:P3]c    |: {g}e2{A}e {g}e2{A}e {g}f{g}f{g}f- {g}f2c            |  {g}e2{A}e    {g}e2{A}e {g}f{g}f{g}f {g}f2e | {g}f2{g}f    {g}f2{g}f {g}f2e {g}e2d     | c3-cdc              B3-Bcd             | $
[V:P5]c    |: {g}e2{A}e {g}e2{A}e {g}f{g}f{g}f- {g}f2c            |  {g}e2{A}e    {g}e2{A}e {g}f{g}f{g}f {g}f2e | d6           e6                          | A6                  G6                 | $
[V:M] |    {g}e2{A}e {g}e2{A}e {g}f2{e}f {gf}g2 e    |  {ag}a2{g}a   {g}a2f {ag}a2{g}a B2A         | {g}B2{d}B    {g}B2{d}B {g}c2{d}c {g}c2 B | {g}B2A              {GAG}A6 {g}c2e     | $
w: goes like this   the  fourth the fifth the | min-or     fall  the   ma-jor     lift the | baf-fled king com-po-sing hal-le- | lu-jah - Hal-le |$
[V:P3]   | A6 A3 B3                                  |  c2           c c2 c d2 d e2 e              | e6           G3 B3                       | [a]3-[a]3-[a]3-[a]3                    | $
[V:P5]   | c6 d3 e3                                  |  [f]12                                      | [g]6         [e]3 [g]3                   | f6                  c3 f3              | $
[V:M]  |   {g}f3{GdG}f6 {g}f2e                       |  {g}c3        {GdG} c6 {g}c2e               | {g}f3{GdG}f6 {g}f2e                      | {g}c3-              cBc {gBd}B3-B2 A   | {GAG}A3-A3-A3- A{g}fe                    ||  $
w:   lu-jah  Hal-le           | lu-jah  Hal-le            | lu-jah  Hal-le            | lu-jah  Hal-le | jah-        -Well your|
[V:P3]   | B3 B6 {g}f2e                              |  f3f6         {g}c2e                        | d3           d6 {g}f2e                   | e12                                    | Aea-             a2g f3-f dd                  || 
[V:P5]   | {g}f3{GdG}f6 {g}f2e                       |  A3A6         {g}c2e                        | B3           B6 {g}f2e                   | a6                  e6                 |  Aea c3-cea c3                            ||  



